packages/core/src/svgs/tokens/mono/WBT.svg

<svg width="24" height="24" viewBox="0 0 24 24" fill="none" xmlns="http://www.w3.org/2000/svg">
<path fill-rule="evenodd" clip-rule="evenodd" d="M19.0711 19.0711C17.1958 20.9464 14.6522 22 12 22C9.34789 22 6.8043 20.9464 4.92893 19.0711C3.05356 17.1958 2 14.6522 2 12C2 9.34789 3.05356 6.8043 4.92893 4.92895C6.8043 3.05358 9.34789 2 12 2C14.6522 2 17.1958 3.05358 19.0711 4.92895C20.9464 6.8043 22 9.34789 22 12C22 14.6522 20.9464 17.1958 19.0711 19.0711ZM12.4662 9.02382C12.6646 9.10724 12.8373 9.24195 12.9665 9.41412H12.9606L14.4918 11.4166L17.6131 3.72509C18.3257 4.20931 18.973 4.78334 19.5389 5.43299L15.9347 14.314C15.8535 14.5122 15.7213 14.6853 15.5514 14.8157C15.3817 14.9463 15.1804 15.0295 14.9681 15.057C14.7557 15.0845 14.5398 15.0554 14.3424 14.9724C14.145 14.8895 13.9731 14.7558 13.844 14.585L12.3187 12.5825L10.3104 17.5236C10.2239 17.739 10.0776 17.925 9.88862 18.0597C9.69968 18.1944 9.4761 18.272 9.24441 18.2834H9.18554C8.96485 18.2831 8.74842 18.2227 8.55955 18.1085C8.37069 17.9944 8.21653 17.8309 8.11369 17.6356L5.29861 12.3176C5.14866 12.0325 5.11809 11.6996 5.21363 11.392C5.30916 11.0844 5.52297 10.8273 5.80803 10.6774C6.09309 10.5275 6.42602 10.4968 6.73361 10.5925C7.04121 10.688 7.29825 10.9018 7.44819 11.1868L9.0442 14.1962L10.8699 9.69088C10.9499 9.49108 11.0818 9.31614 11.2518 9.18414C11.4218 9.05208 11.6238 8.96763 11.8372 8.93946C12.0506 8.91129 12.2677 8.9404 12.4662 9.02382Z" fill="white"/>
</svg>

<svg xmlns="http://www.w3.org/2000/svg" width="24" height="24" fill="none" viewBox="0 0 24 24">
    <path fill="#fff" fill-rule="evenodd" d="M19.071 19.071A10 10 0 1 1 4.93 4.93a10 10 0 0 1 14.14 14.14M12.466 9.024c.199.083.371.218.5.39h-.005l1.53 2.003 3.122-7.692a10 10 0 0 1 1.926 1.708l-3.604 8.881a1.21 1.21 0 0 1-1.593.658 1.2 1.2 0 0 1-.498-.387l-1.525-2.003-2.009 4.942a1.21 1.21 0 0 1-1.066.76h-.058a1.21 1.21 0 0 1-1.072-.648l-2.815-5.318a1.214 1.214 0 0 1 2.15-1.131l1.595 3.01L10.87 9.69a1.21 1.21 0 0 1 1.596-.667" clip-rule="evenodd"/>
</svg>
